icons/lines/crown.svg

<svg xmlns="http://www.w3.org/2000/svg" width="24" height="24" viewBox="0 0 24 24" fill="none" stroke="currentColor" stroke-width="2" stroke-linecap="round" stroke-linejoin="round" >
  <path d="M2 15.29V5.71002C2 4.38002 2.77 4.06002 3.71 5.00002L6.3 7.59002C6.69 7.98002 7.33 7.98002 7.71 7.59002L11.29 4.00002C11.68 3.61002 12.32 3.61002 12.7 4.00002L16.29 7.59002C16.68 7.98002 17.32 7.98002 17.7 7.59002L20.29 5.00002C21.23 4.06002 22 4.38002 22 5.71002V15.3C22 18.3 20 20.3 17 20.3H7C4.24 20.29 2 18.05 2 15.29Z"/>
  </svg>

<svg xmlns="http://www.w3.org/2000/svg" width="24" height="24" viewBox="0 0 24 24" fill="none" stroke="currentColor" stroke-width="2" stroke-linecap="round" stroke-linejoin="round">
  <path d="M2 5.71c0-1.33.77-1.65 1.71-.71L6.3 7.59a1 1 0 0 0 1.41 0L11.29 4a1 1 0 0 1 1.41 0l3.59 3.59a1 1 0 0 0 1.41 0L20.29 5c.94-.94 1.71-.62 1.71.71v9.59c0 3-2 5-5 5H7a5 5 0 0 1-5-5.01z" />
</svg>
